X:1
T:Devil in the Kitchen [3]
M:C|
L:1/8
R:Highland Fling
S:Jerry O'Brien's Accordion Instructor (1949)
Z:AK/Fiddler's Companion
K:A Mix
A2 ed cdef|g3 dg BgdB|A2 ed cdef|gf gB BA A2|A2 ed cdef|g2 dg BgdB|
A2 ed cdef|gf gB BA A2||a2 ed cdef|g2 dg Bgdg|a2 ed cdef|gf gB BA A2|
A2 ed cdef|g2 dg Bgdg|1 afge fdef|gedB BA A2:|2 (3agf (3gfe (3fed (3edc|
(3def (3efg (3agf (3edB||

